svgs/regular/face-kiss-closed-eyes.svg

<svg xmlns="http://www.w3.org/2000/svg" viewBox="0 0 512 512"><!--! Font Awesome Pro 6.5.1 by @fontawesome - https://fontawesome.com License - https://fontawesome.com/license (Commercial License) Copyright 2023 Fonticons, Inc. --><path d="M464 256A208 208 0 1 0 48 256a208 208 0 1 0 416 0zM0 256a256 256 0 1 1 512 0A256 256 0 1 1 0 256zm304.7 41.7c4.3 5.1 7.3 11.4 7.3 18.3s-3.1 13.2-7.3 18.3c-4.3 5.2-10.1 9.7-16.7 13.4c-2.7 1.5-5.7 3-8.7 4.3c3.1 1.3 6 2.7 8.7 4.3c6.6 3.7 12.5 8.2 16.7 13.4c4.3 5.1 7.3 11.4 7.3 18.3s-3.1 13.2-7.3 18.3c-4.3 5.2-10.1 9.7-16.7 13.4C274.7 427.1 257.4 432 240 432c-3.6 0-6.8-2.5-7.7-6s.6-7.2 3.8-9l0 0 0 0 0 0 0 0 .2-.1c.2-.1 .5-.3 .9-.5c.8-.5 2-1.2 3.4-2.1c2.8-1.9 6.5-4.5 10.2-7.6c3.7-3.1 7.2-6.6 9.6-10.1c2.5-3.5 3.5-6.4 3.5-8.6s-1-5-3.5-8.6c-2.5-3.5-5.9-6.9-9.6-10.1c-3.7-3.1-7.4-5.7-10.2-7.6c-1.4-.9-2.6-1.6-3.4-2.1c-.4-.2-.7-.4-.9-.5l-.2-.1 0 0 0 0 0 0c-2.5-1.4-4.1-4.1-4.1-7s1.6-5.6 4.1-7l0 0 0 0 0 0 0 0 0 0 .2-.1c.2-.1 .5-.3 .9-.5c.8-.5 2-1.2 3.4-2.1c2.8-1.9 6.5-4.5 10.2-7.6c3.7-3.1 7.2-6.6 9.6-10.1c2.5-3.5 3.5-6.4 3.5-8.6s-1-5-3.5-8.6c-2.5-3.5-5.9-6.9-9.6-10.1c-3.7-3.1-7.4-5.7-10.2-7.6c-1.4-.9-2.6-1.6-3.4-2.1c-.4-.2-.7-.4-.9-.5l-.2-.1 0 0 0 0 0 0c-3.2-1.8-4.7-5.5-3.8-9s4.1-6 7.7-6c17.4 0 34.7 4.9 47.9 12.3c6.6 3.7 12.5 8.2 16.7 13.4zM175.6 220c-10.6 0-19.9 3.8-25.4 9.7c-7.6 8.1-20.2 8.5-28.3 .9s-8.5-20.2-.9-28.3c14.5-15.5 35.2-22.3 54.6-22.3s40.1 6.8 54.6 22.3c7.6 8.1 7.1 20.7-.9 28.3s-20.7 7.1-28.3-.9c-5.5-5.8-14.8-9.7-25.4-9.7zm134.6 9.7c-7.6 8.1-20.2 8.5-28.3 .9s-8.5-20.2-.9-28.3c14.5-15.5 35.2-22.3 54.6-22.3s40.1 6.8 54.6 22.3c7.6 8.1 7.1 20.7-.9 28.3s-20.7 7.1-28.3-.9c-5.5-5.8-14.8-9.7-25.4-9.7s-19.9 3.8-25.4 9.7z"/></svg>

<svg xmlns="http://www.w3.org/2000/svg" viewBox="0 0 512 512"><!--! Font Awesome Pro 6.1.1 by @fontawesome - https://fontawesome.com License - https://fontawesome.com/license (Commercial License) Copyright 2022 Fonticons, Inc. --><path d="M304.7 297.7C308.9 302.8 312 309.1 312 316C312 322.9 308.9 329.2 304.7 334.3C300.4 339.5 294.5 344 287.9 347.7C285.2 349.3 282.3 350.7 279.2 352C282.3 353.3 285.2 354.7 287.9 356.3C294.5 359.1 300.4 364.5 304.7 369.7C308.9 374.8 312 381.1 312 388C312 394.9 308.9 401.2 304.7 406.3C300.4 411.5 294.5 416 287.9 419.7C274.7 427.1 257.4 432 240 432C236.4 432 233.2 429.5 232.3 426C231.3 422.5 232.9 418.8 236.1 417L236.1 417L236.3 416.9C236.5 416.8 236.8 416.6 237.2 416.3C238 415.9 239.2 415.1 240.6 414.2C243.4 412.4 247.2 409.7 250.8 406.6C254.6 403.5 258 400 260.5 396.6C262.1 393 264 390.2 264 388C264 385.8 262.1 382.1 260.5 379.4C258 375.1 254.6 372.5 250.8 369.4C247.2 366.3 243.4 363.6 240.6 361.8C239.2 360.9 238 360.1 237.2 359.7C236.8 359.4 236.5 359.2 236.3 359.1L236.1 358.1L236.1 358.1C233.6 357.6 232 354.9 232 352C232 349.1 233.6 346.4 236.1 345L236.1 345L236.3 344.9C236.5 344.8 236.8 344.6 237.2 344.3C238 343.9 239.2 343.1 240.6 342.2C243.4 340.4 247.2 337.7 250.8 334.6C254.6 331.5 258 328.1 260.5 324.6C262.1 321 264 318.2 264 316C264 313.8 262.1 310.1 260.5 307.4C258 303.1 254.6 300.5 250.8 297.4C247.2 294.3 243.4 291.6 240.6 289.8C239.2 288.9 238 288.1 237.2 287.7C236.8 287.4 236.5 287.2 236.3 287.1L236.1 286.1L236.1 286.1C232.9 285.2 231.3 281.5 232.3 277.1C233.2 274.5 236.4 272 240 272C257.4 272 274.7 276.9 287.9 284.3C294.5 287.1 300.4 292.5 304.7 297.7L304.7 297.7zM175.6 220C164.1 220 155.7 223.8 150.2 229.7C142.7 237.7 130 238.1 121.9 230.6C113.9 223 113.5 210.4 121 202.3C135.6 186.8 156.3 180 175.6 180C194.1 180 215.7 186.8 230.2 202.3C237.8 210.4 237.4 223 229.3 230.6C221.2 238.1 208.6 237.7 201 229.7C195.6 223.8 186.3 220 175.6 220V220zM281.9 230.6C273.9 223 273.5 210.4 281 202.3C295.6 186.8 316.3 180 335.6 180C354.1 180 375.7 186.8 390.2 202.3C397.8 210.4 397.4 223 389.3 230.6C381.2 238.1 368.6 237.7 361 229.7C355.6 223.8 346.3 220 335.6 220C324.1 220 315.7 223.8 310.2 229.7C302.7 237.7 290 238.1 281.9 230.6zM512 256C512 397.4 397.4 512 256 512C114.6 512 0 397.4 0 256C0 114.6 114.6 0 256 0C397.4 0 512 114.6 512 256zM256 48C141.1 48 48 141.1 48 256C48 370.9 141.1 464 256 464C370.9 464 464 370.9 464 256C464 141.1 370.9 48 256 48z"/></svg>
